themes/tw/images/arrow.svg

<svg width="120" height="47" viewBox="0 0 120 47" fill="none" xmlns="http://www.w3.org/2000/svg">
<path d="M1.71996 13.8702C2.90578 15.1107 4.25976 16.2306 5.25123 17.6105C14.0787 29.8975 26.7756 36.0743 40.9156 39.4133C45.7969 40.5659 51.3415 40.4552 56.294 39.4697C70.4494 36.6529 83.4216 30.832 94.6038 21.5405C97.8267 18.8623 100.545 15.5771 102.894 11.7328C101.601 12.2196 100.289 12.6611 99.0194 13.2016C95.2794 14.7939 91.6132 16.5817 87.8003 17.9693C86.1356 18.5752 84.1756 18.5652 82.3668 18.4786C81.6959 18.4465 80.6753 17.4702 80.5457 16.7859C80.4255 16.1515 81.1315 14.8509 81.7285 14.6661C91.5653 11.6197 100.011 5.85659 108.914 0.981644C112.036 -0.727326 114.007 -0.253612 115.326 2.78644C118.678 10.5097 120.158 18.6614 119.987 27.09C119.981 27.3698 119.543 27.6407 118.88 28.412C112.033 25.8424 114.164 18.5103 110.79 12.6044C109.942 14.0167 109.442 15.1431 108.688 16.0599C94.091 33.7993 74.8772 43.1881 52.5453 46.6929C49.1443 47.2267 45.4908 47.0156 42.075 46.4362C29.3723 44.2814 18.0472 38.9669 8.69403 30.0718C5.68087 27.2064 3.52008 23.3803 1.28051 19.7992C0.410843 18.4085 0.401385 16.4801 0 14.7967C0.573358 14.4879 1.1466 14.179 1.71996 13.8702Z" fill="#B3441E"/>
</svg>

<svg width="120" height="47" fill="none" xmlns="http://www.w3.org/2000/svg"><path d="M1.72 13.87c1.186 1.24 2.54 2.36 3.531 3.74 8.828 12.288 21.525 18.464 35.665 21.803 4.88 1.153 10.426 1.042 15.378.057 14.155-2.817 27.128-8.638 38.31-17.93 3.223-2.678 5.941-5.963 8.29-9.807-1.293.487-2.605.928-3.875 1.469-3.74 1.592-7.406 3.38-11.219 4.767-1.664.606-3.624.596-5.433.51-.671-.032-1.692-1.009-1.821-1.693-.12-.635.585-1.935 1.182-2.12 9.837-3.046 18.283-8.81 27.186-13.684 3.122-1.71 5.093-1.236 6.412 1.804 3.352 7.724 4.832 15.875 4.661 24.304-.006.28-.444.55-1.107 1.322-6.847-2.57-4.716-9.902-8.09-15.808-.848 1.413-1.348 2.54-2.102 3.456-14.597 17.74-33.81 27.128-56.143 30.633-3.4.534-7.054.323-10.47-.257-12.703-2.155-24.028-7.47-33.381-16.364-3.013-2.866-5.174-6.692-7.413-10.273C.41 18.41.4 16.48 0 14.797c.573-.31 1.147-.618 1.72-.927Z" fill="#B3441E"/></svg>
